X:1
T:Newport Beach, 77.77 D
T:Newport Beach, 77.77 D
T:Daniel Brink Towner, 1899
T:Public Domain Courtesy of the Cyber Hymnal™
C:Daniel Brink Towner, 1899
Z:Public Domain
Z:Courtesy of the Cyber Hymnal™
%%score 1 ( 2 3 )
L:1/8
Q:1/4=100
M:2/4
K:G
V:1 treble 
V:2 bass 
V:3 bass 
V:1
 [B,G][B,G] [B,G][B,G] | [B,G]2 [CA]2 | [DB]4 | [FA][FA] [FA][FA] | [FA]2 [GB]2 | [Ac]4 | %6
 [GB][GB] [GB][GB] | [GB]2 [Ac]2 | [Bd]4 | [=Fd][Ec] [DB][CA] | [B,G]2 [CF]2 | [B,G]4 | %12
 [DB]2 [B,D]2 | [GB]>[GB] [Ac][GB] | [FA]4 | [CA][CD] [CA][CD] | [DB]2 [CA]2 | [B,G]4 | %18
 [DB]2 [B,D]2 | [GB]>[GB] [Ac][GB] | [FA]4 | [=Fd][Ec] [DB][CA] | [B,G]2 [CF]2 | [B,G]4 |] x4 |] %25
V:2
 [G,,D,][G,,D,] [G,,D,][G,,D,] | [G,,D,]2 [G,,D,]2 | [G,,G,]4 | D,D, D,D, | D,2 D,2 | [D,F,]4 | %6
 G,G, [G,D][G,D] | [G,D]2 [G,D]2 | G,4 | [B,,G,][C,G,] [D,G,][D,F,] | [D,G,]2 D,2 | [G,,D,]4 | %12
 G,2 G,2 | [G,D]>[G,D] [G,D][G,D] | [D,D]4 | [D,A,][D,A,] [D,F,][D,A,] | [D,G,]2 [D,F,]2 | G,4 | %18
 G,2 x2 | G,2 x2 | [G,D]>[G,D] [G,D][G,D] | D4 | [B,,G,][B,,G,] [D,G,][D,F,] | [D,G,]2 D,2 |] %24
 [G,,D,]4 |] %25
V:3
 x4 | x4 | x4 | D,D, D,D, | D,2 D,2 | x4 | G,G, x2 | x4 | G,4 | x4 | x2 D,2 | x4 | G,2 G,2 | x4 | %14
 x4 | x4 | x4 | G,4 | G,2 x2 | G,2 x2 | x4 | (D,2 C,2) | x4 | x2 D,2 |] x4 |] %25

